packages/core/src/svgs/tokens/branded/MCRT.svg

<svg width="24" height="24" viewBox="0 0 24 24" fill="none" xmlns="http://www.w3.org/2000/svg">
<path fill-rule="evenodd" clip-rule="evenodd" d="M12.0002 20.7879C14.4111 20.7879 16.7235 19.8301 18.4283 18.1252C20.1332 16.4203 21.091 14.1081 21.091 11.697C21.091 9.28584 20.1332 6.97359 18.4283 5.26871C16.7235 3.56383 14.4111 2.60605 12.0002 2.60605C9.58904 2.60605 7.27673 3.56383 5.57184 5.26871C3.86697 6.97359 2.90918 9.28584 2.90918 11.697C2.90918 14.1081 3.86697 16.4203 5.57184 18.1252C7.27673 19.8301 9.58904 20.7879 12.0002 20.7879ZM12.0002 20C14.2023 20 16.3141 19.1252 17.8713 17.5681C19.4284 16.0109 20.3032 13.8991 20.3032 11.697C20.3032 9.49485 19.4284 7.38296 17.8713 5.82583C16.3141 4.26871 14.2023 3.39392 12.0002 3.39392C9.79805 3.39392 7.68609 4.26871 6.12896 5.82583C4.57184 7.38296 3.69706 9.49485 3.69706 11.697C3.69706 13.8991 4.57184 16.0109 6.12896 17.5681C7.68609 19.1252 9.79805 20 12.0002 20Z" fill="#CE3A6C"/>
<path fill-rule="evenodd" clip-rule="evenodd" d="M12 20.3273C13.1529 20.3579 14.3004 20.1571 15.3745 19.7369C16.4487 19.3169 17.4277 18.6858 18.2542 17.8811C19.0804 17.0764 19.7372 16.1143 20.1856 15.0517C20.634 13.989 20.8651 12.8474 20.8651 11.694C20.8651 10.5406 20.634 9.39882 20.1856 8.33617C19.7372 7.27351 19.0804 6.31144 18.2542 5.50673C17.4277 4.70204 16.4487 4.071 15.3745 3.65087C14.3004 3.23074 13.1529 3.03003 12 3.06059C9.70934 3.06059 7.51271 3.97049 5.89307 5.59013C4.27344 7.20976 3.36354 9.40646 3.36354 11.6969C3.36354 13.9874 4.27344 16.1842 5.89307 17.8038C7.51271 19.4234 9.70934 20.3334 12 20.3334V20.3273ZM12 20.5394C13.1611 20.5394 14.311 20.3106 15.3837 19.8663C16.4566 19.422 17.4314 18.7706 18.2525 17.9494C19.0735 17.1284 19.7249 16.1536 20.1692 15.0809C20.6137 14.0079 20.8423 12.8581 20.8423 11.6969C20.8423 10.5358 20.6137 9.38596 20.1692 8.3131C19.7249 7.24029 19.0735 6.26551 18.2525 5.44441C17.4314 4.62332 16.4566 3.97199 15.3837 3.52761C14.311 3.08325 13.1611 2.85452 12 2.85452C9.65475 2.85452 7.40564 3.78613 5.74736 5.44441C4.08908 7.10269 3.15747 9.35173 3.15747 11.6969C3.15747 14.0422 4.08908 16.2912 5.74736 17.9494C7.40564 19.6078 9.65475 20.5394 12 20.5394Z" fill="#FFF6FF"/>
<path d="M7.6186 17.0546C6.96405 17.8424 5.6489 19.4243 5.63678 19.4606C5.57012 19.3758 5.23678 19.394 5.06103 19.5818C5.01215 19.6396 4.97964 19.7095 4.96686 19.784C4.95408 19.8587 4.96147 19.9353 4.9883 20.0061L4.71557 20.0667L4.23071 21.8849L4.37012 22L6.14587 21.297L6.04284 20.9213C6.15194 20.9152 6.40042 20.8606 6.4792 20.7273C6.558 20.5939 6.53981 20.394 6.51557 20.3152L8.72164 17.7212L7.6186 17.0546Z" fill="#602E9D"/>
<path d="M6.66672 20.2486L5.63642 19.3092L5.84854 19.0666L6.87884 20.0061L6.66672 20.2486ZM6.92734 19.897L5.89703 18.9576L6.11521 18.7152L7.14551 19.6606L6.92734 19.897ZM7.2849 19.5455L6.2546 18.6061L6.46672 18.3637L7.49702 19.3092L7.2849 19.5455ZM7.54551 19.2607L6.51521 18.3212L6.73339 18.0789L7.7637 19.0242L7.54551 19.2607ZM7.75764 18.9091L6.73339 17.9697L6.94551 17.7273L7.97582 18.6728L7.75764 18.9091ZM8.04249 18.5636L7.01218 17.6183L7.23036 17.3757L8.26066 18.3212L8.04249 18.5636ZM8.4243 18.2122L7.40005 17.2667L7.61824 17.0303L8.64855 17.9697L8.4243 18.2122ZM5.53339 19.7576C5.30309 19.6364 5.10914 19.6546 5.04248 19.6788C5.07884 19.4425 5.46672 19.4121 5.61218 19.4667C5.75763 19.5213 6.27885 20.1272 6.43036 20.2606C6.55157 20.3698 6.50914 20.4183 6.46672 20.4303C6.24855 20.2606 5.76369 19.8849 5.53339 19.7637V19.7576Z" fill="#441C56"/>
<path d="M6.32763 20.8001L5.32157 19.9394C5.50338 19.9758 5.90946 20.0909 6.1337 20.2849C6.35794 20.4849 6.35794 20.7091 6.32763 20.8001ZM4.32764 21.9151L4.4246 21.6121L4.58218 21.691L5.73369 21.3575L4.4852 21.9151H4.32764Z" fill="#AE8FEC"/>
<path d="M5.71559 21.1213L4.9156 20.4364C4.9156 20.4486 4.9156 20.4788 4.93378 20.5212C4.95196 20.5819 4.97621 20.6424 5.00045 20.8667C5.02469 21.091 4.97014 20.9394 4.95196 21.0001C4.92772 21.0606 4.95196 21.0788 4.86106 21.103C4.77014 21.1334 4.75802 21.2303 4.70348 21.3273C4.65499 21.4061 4.72166 21.4607 4.76409 21.4728C4.84287 21.388 5.02469 21.194 5.09136 21.1395C5.17014 21.0728 5.24893 21.1213 5.27318 21.1213C5.29742 21.1213 5.38227 21.0849 5.46711 21.0606C5.53378 21.0364 5.55196 21.091 5.55803 21.1213H5.71559Z" fill="#F781FC"/>
<path d="M8.43628 15.1818L8.09082 14.8788L8.56962 14.5031L10.6908 16.1213L10.6 16.8364L10.0787 16.594L9.65448 16.9091L8.31507 16.0121L8.43628 15.1818Z" fill="#382671"/>
<path d="M8.64233 15.9576L8.68477 15.3637L9.06052 15.6668L8.64233 15.9576ZM9.2605 15.8848L8.73932 16.1637L9.22415 16.5333L9.2605 15.8848ZM9.42411 16.0243L9.49086 16.6485L9.93321 16.3697L9.42411 16.0243Z" fill="#D83F7F"/>
<path d="M12.2425 18.9698C13.8788 18.9698 15.388 18.4303 16.6001 17.5152C16.5698 17.4364 16.5698 17.3152 16.5637 17.1879C16.5637 17.0546 16.5576 16.9273 16.5213 16.8485C16.485 16.7576 16.5576 16.7515 16.6303 16.7454C16.7517 16.7333 16.8729 16.7213 16.6183 16.4243C16.6547 16.3031 16.5759 16.2666 16.4486 16.2788L16.2304 16.4728C16.2204 16.4198 16.2082 16.3672 16.1941 16.3151C16.1516 16.1637 16.1031 16.1879 15.8789 16.3031C15.5031 16.4909 14.6061 16.9454 12.3759 17.2304C9.53953 17.5879 7.40614 15.503 6.70312 14.4182C6.83644 14.7334 7.29706 15.4666 8.18797 16.4182C7.29561 15.6515 6.63908 14.6473 6.29461 13.5225C5.95014 12.3975 5.93188 11.1979 6.24194 10.0631C6.552 8.92806 7.17766 7.90446 8.04626 7.11095C8.91485 6.31743 9.99079 5.7866 11.149 5.58011C12.3072 5.37363 13.5003 5.49997 14.5896 5.94445C15.6788 6.38891 16.6197 7.1333 17.3028 8.09113C17.9859 9.04897 18.3833 10.181 18.4488 11.3556C18.5144 12.5303 18.2453 13.6994 17.6728 14.7273C17.7394 14.7637 17.8182 14.7939 17.9152 14.8061C18.0971 14.8303 18.2425 14.594 18.3516 14.2667C18.3153 14.5696 18.3516 14.8546 18.4122 14.8727C18.497 14.9031 18.8971 13.8001 18.9212 13.606C18.9395 13.4849 18.9395 14.1091 18.8425 14.7454C19.5018 13.3176 19.6804 11.7144 19.3516 10.1763C19.0226 8.63835 18.2041 7.24839 17.0187 6.21489C15.833 5.18139 14.3445 4.56004 12.7759 4.44404C11.2075 4.32804 9.64361 4.72362 8.31897 5.57145C6.9943 6.41929 5.98016 7.6737 5.42863 9.14655C4.8771 10.6195 4.81791 12.2315 5.25991 13.7408C5.70192 15.2503 6.62131 16.5758 7.88022 17.5184C9.13915 18.4611 10.6697 18.9703 12.2425 18.9698ZM18.3516 14.2727C18.3638 14.1758 18.388 14.0727 18.4122 13.9818C18.5038 13.6611 18.5646 13.3323 18.594 12.9999C18.5637 13.3454 18.485 13.8728 18.3516 14.2727Z" fill="url(#paint0_linear_364_7693)"/>
<path d="M7.4362 13.9455C7.28728 14.0088 7.12191 14.0224 6.96466 13.9841C6.80742 13.9459 6.66671 13.8579 6.56348 13.7333C6.73923 14.9455 7.99984 14.9576 8.61196 14.8122C9.05479 15.4683 9.67476 15.9854 10.3998 16.3031C10.1998 17.9333 11.2604 18.1576 11.812 18.0606C11.3211 17.194 11.6423 16.594 11.8665 16.4L8.25438 13.5939C8.16347 13.6424 7.87256 13.7758 7.4362 13.9455Z" fill="url(#paint1_linear_364_7693)"/>
<path d="M8.2427 13.8182L8.17603 14.4969L8.85481 14.2727L8.23664 13.8121L8.2427 13.8182ZM10.8064 16.0485L10.7457 16.7273L11.4245 16.5091L10.8064 16.0485Z" fill="#D83F7F"/>
<path d="M10.673 12.2546H10.1093L10.2487 12.8303H9.6729L9.78207 13.2969H9.25474V13.4122H9.10327V13.6909L9.92745 14.9636L14.4548 9.87272L20.8609 2.15151L20.6912 2C19.0911 2.93333 17.8184 2.97576 17.3821 2.88484L11.1699 11.103L10.4669 11.6606L10.673 12.2546Z" fill="url(#paint2_linear_364_7693)"/>
<path d="M10.1093 12.2546H10.673L10.4669 11.6607L11.1699 11.1031L12.9517 8.75156C13.4366 8.98185 14.0487 9.34557 13.8912 9.52729C13.6973 9.74549 13.0244 9.58795 12.7154 9.47878L11.9275 10.3879H12.6911C12.776 10.3758 12.9639 10.394 12.9639 10.5698C12.9639 10.8 12.279 10.9758 11.4608 10.9455L12.3032 12.2909L9.92745 14.9637L9.10327 13.6909V13.4122H9.25474V13.297H9.78207L9.6729 12.8303H10.2487L10.1093 12.2546Z" fill="#AFDDEA"/>
<path d="M16.5879 3.93938C16.9394 3.8606 17.4364 3.80606 17.8001 3.95152C18.2849 4.14545 18.497 4.43636 18.485 5.01213L20.8607 2.15151L20.691 2C19.0909 2.93333 17.8182 2.97576 17.3819 2.88484L16.5879 3.93938Z" fill="#F3FFFD"/>
<path d="M12.6607 13.9637L12.7516 14.5273L12.1698 14.4789L12.2606 15.0546L11.788 15.0243L11.8729 15.5455L11.7637 15.5637L11.788 15.7212L11.5152 15.7637L10.1394 15.1516L14.5515 9.75157L20.8668 2.15155L21.0485 2.29701C20.3941 4.05458 20.5516 5.32731 20.7152 5.75155L13.6971 13.2728L13.2729 14.0728L12.6546 13.9577L12.6607 13.9637Z" fill="#3D89C7"/>
<path d="M18.3152 5.23034C18.9091 4.75762 19.6182 4.2667 19.7637 4.43034C19.9637 4.65458 20.2485 5.02428 20.2424 6.25459L20.7151 5.75155C20.5515 5.32731 20.394 4.05458 21.0424 2.29701L20.8667 2.15155L18.3152 5.23034Z" fill="#184BB9"/>
<path d="M14.0847 10.6485L19.9029 3.60605C17.7817 6.73333 13.4788 13.0545 13.2969 13.2969C13.109 13.5394 12.8666 13.7212 12.7636 13.7818H12.3696V14.3455H11.8666V14.7576H11.3817V15.2425L10.7454 15.0304L11.2908 14.3455L12.7636 13.4061L12.5333 13.1818L13.2969 12.697L13.0241 12.4303L13.606 12.0303L13.4242 11.794L14.0908 10.6424L14.0847 10.6485Z" fill="#5AA3D6"/>
<path d="M10.5822 13.4183C10.4307 13.8545 9.70951 14.3151 9.37012 14.4909L9.97 15.1577L10.5822 15.497C10.5822 14.8364 11.8307 13.8001 12.461 13.3637L12.3094 13.194L13.0367 12.6303L12.7337 12.5273L13.358 12.0546L13.1518 11.9515L14.4245 9.79395L12.6185 11.4788L12.4488 11.2181L12.1277 12.0546L11.9276 11.6909L11.5338 12.6303L11.3156 12.3091L10.7336 13.4183H10.5761H10.5822Z" fill="url(#paint3_linear_364_7693)"/>
<path d="M10.8181 13.4183L10.4182 13.9637L11.0848 13.4183H11.2909L13.5333 10.8485L12.5879 11.7637L12.4424 11.6304L12.1879 12.2182H11.9818L11.5879 12.8182L11.3515 12.697L10.9758 13.4183H10.8181Z" fill="#1ED096"/>
<defs>
<linearGradient id="paint0_linear_364_7693" x1="3.42046" y1="7.75833" x2="20.4456" y2="14.0495" gradientUnits="userSpaceOnUse">
<stop offset="0.55" stop-color="#F3FEFF"/>
<stop offset="1" stop-color="#2DD2EE"/>
</linearGradient>
<linearGradient id="paint1_linear_364_7693" x1="11.1376" y1="11.052" x2="14.3246" y2="8.07297" gradientUnits="userSpaceOnUse">
<stop stop-color="#21826F"/>
<stop offset="1" stop-color="#062F6F"/>
</linearGradient>
<linearGradient id="paint2_linear_364_7693" x1="12.0003" y1="8.16176" x2="14.5452" y2="10.0843" gradientUnits="userSpaceOnUse">
<stop offset="0.07" stop-color="#B1E2EF"/>
<stop offset="0.18" stop-color="#CFECF2"/>
<stop offset="0.82" stop-color="#CDEAEE"/>
<stop offset="1" stop-color="#ADE0F3"/>
</linearGradient>
<linearGradient id="paint3_linear_364_7693" x1="8.49045" y1="13.0308" x2="11.7463" y2="16.174" gradientUnits="userSpaceOnUse">
<stop stop-color="#108550"/>
<stop offset="1" stop-color="#0E4E4D"/>
</linearGradient>
</defs>
</svg>

<svg xmlns="http://www.w3.org/2000/svg" width="24" height="24" fill="none" viewBox="0 0 24 24">
    <path fill="#CE3A6C" fill-rule="evenodd" d="M12 20.788a9.09 9.09 0 1 0 0-18.181 9.09 9.09 0 0 0 0 18.18M12 20a8.303 8.303 0 1 0 0-16.606A8.303 8.303 0 0 0 12 20" clip-rule="evenodd"/>
    <path fill="#FFF6FF" fill-rule="evenodd" d="M12 20.327a8.634 8.634 0 0 0 8.865-8.633A8.637 8.637 0 0 0 12 3.061a8.636 8.636 0 1 0 0 17.272zm0 .212a8.843 8.843 0 1 0 0-17.686 8.843 8.843 0 0 0 0 17.686" clip-rule="evenodd"/>
    <path fill="#602E9D" d="M7.619 17.055c-.655.787-1.97 2.37-1.982 2.406-.067-.085-.4-.067-.576.12a.42.42 0 0 0-.073.425l-.272.06-.485 1.819.14.115 1.775-.703-.103-.376c.109-.006.357-.06.436-.194.079-.133.06-.333.037-.412l2.206-2.594z"/>
    <path fill="#441C56" d="m6.667 20.249-1.03-.94.212-.242 1.03.94zm.26-.352-1.03-.94.218-.242 1.03.946zm.358-.351-1.03-.94.212-.242 1.03.945zm.26-.285-1.03-.94.218-.242 1.03.945zm.213-.352-1.025-.94.213-.242 1.03.946zm.284-.345-1.03-.946.218-.242 1.03.945zm.382-.352L7.4 17.267l.218-.237 1.03.94zm-2.89 1.546c-.23-.122-.425-.103-.492-.08.037-.236.425-.266.57-.211.146.054.667.66.818.794.122.109.08.157.037.17-.218-.17-.703-.546-.934-.667z"/>
    <path fill="#AE8FEC" d="m6.328 20.8-1.006-.86c.181.036.587.15.812.345.224.2.224.424.194.515m-2 1.115.097-.303.157.079 1.152-.333-1.249.557z"/>
    <path fill="#F781FC" d="m5.716 21.121-.8-.685c0 .013 0 .043.018.085.018.06.042.121.066.346.025.224-.03.072-.048.133-.024.06 0 .079-.09.103-.092.03-.104.127-.159.224-.048.08.019.134.061.146.079-.085.26-.279.327-.333.08-.067.158-.019.182-.019s.11-.036.194-.06c.067-.025.085.03.091.06z"/>
    <path fill="#382671" d="m8.436 15.182-.345-.303.479-.376 2.12 1.618-.09.715-.521-.242-.425.315-1.339-.897z"/>
    <path fill="#D83F7F" d="m8.642 15.958.043-.594.376.303zm.619-.073-.522.279.485.37zm.163.14.067.624.442-.28z"/>
    <path fill="url(#MCRT__a)" d="M12.243 18.97c1.636 0 3.145-.54 4.357-1.455-.03-.079-.03-.2-.036-.327 0-.133-.006-.26-.043-.34-.036-.09.037-.096.11-.103.12-.012.242-.024-.013-.32.037-.122-.042-.158-.17-.146l-.218.194a2 2 0 0 0-.036-.158c-.042-.151-.09-.127-.315-.012-.376.188-1.273.642-3.503.927-2.836.358-4.97-1.727-5.673-2.812.133.315.594 1.049 1.485 2a6.219 6.219 0 1 1 9.485-1.69.7.7 0 0 0 .242.078c.182.024.328-.212.437-.54-.037.304 0 .589.06.607.085.03.485-1.073.51-1.267.017-.121.017.503-.08 1.14a7.273 7.273 0 1 0-6.6 4.224m6.109-4.697c.012-.097.036-.2.06-.291.092-.32.153-.65.182-.982-.03.345-.109.873-.242 1.273"/>
    <path fill="url(#MCRT__b)" d="M7.436 13.946a.75.75 0 0 1-.873-.213c.176 1.212 1.437 1.225 2.049 1.08a4.2 4.2 0 0 0 1.788 1.49c-.2 1.63.86 1.855 1.412 1.758-.49-.867-.17-1.467.055-1.661l-3.613-2.806c-.09.048-.381.182-.818.351"/>
    <path fill="#D83F7F" d="m8.243 13.818-.067.679.679-.224-.618-.46zm2.563 2.23-.06.68.678-.219z"/>
    <path fill="url(#MCRT__c)" d="M10.673 12.255h-.564l.14.575h-.576l.11.467h-.528v.115h-.152v.279l.824 1.273 4.528-5.091 6.406-7.721L20.69 2c-1.6.933-2.873.976-3.309.885l-6.212 8.218-.703.558z"/>
    <path fill="#AFDDEA" d="M10.11 12.255h.563l-.206-.594.703-.558 1.782-2.351c.485.23 1.097.594.94.775-.195.218-.868.061-1.177-.048l-.787.909h.763c.085-.012.273.006.273.182 0 .23-.685.406-1.503.375l.842 1.346-2.376 2.673-.824-1.273v-.279h.152v-.115h.527l-.11-.467h.577z"/>
    <path fill="#F3FFFD" d="M16.588 3.94c.351-.08.848-.134 1.212.012.485.193.697.484.685 1.06l2.376-2.86L20.69 2c-1.6.933-2.873.976-3.31.885z"/>
    <path fill="#3D89C7" d="m12.66 13.964.092.563-.582-.048.09.576-.472-.03.085.52-.11.019.025.157-.273.043-1.376-.612 4.413-5.4 6.315-7.6.181.145c-.654 1.758-.496 3.03-.333 3.455l-7.018 7.52-.424.8-.618-.114z"/>
    <path fill="#184BB9" d="M18.315 5.23c.594-.472 1.303-.963 1.449-.8.2.225.485.594.478 1.825l.473-.503c-.163-.425-.321-1.697.327-3.455l-.175-.145z"/>
    <path fill="#5AA3D6" d="m14.085 10.649 5.818-7.043c-2.121 3.127-6.424 9.449-6.606 9.69-.188.243-.43.425-.533.486h-.394v.563h-.503v.413h-.485v.485l-.637-.213.546-.684 1.473-.94-.23-.224.763-.485-.273-.267.582-.4-.182-.236.667-1.152z"/>
    <path fill="url(#MCRT__d)" d="M10.582 13.418c-.151.437-.872.897-1.212 1.073l.6.667.612.339c0-.66 1.249-1.697 1.879-2.133l-.152-.17.728-.564-.303-.103.624-.472-.206-.104 1.273-2.157-1.807 1.685-.17-.26-.32.836-.2-.364-.394.94-.218-.322-.582 1.11h-.158z"/>
    <path fill="#1ED096" d="m10.818 13.418-.4.546.667-.546h.206l2.242-2.57-.945.916-.146-.134-.254.588h-.206l-.394.6-.236-.121-.376.721z"/>
    <defs>
        <linearGradient id="MCRT__a" x1="3.42" x2="20.446" y1="7.758" y2="14.05" gradientUnits="userSpaceOnUse">
            <stop offset=".55" stop-color="#F3FEFF"/>
            <stop offset="1" stop-color="#2DD2EE"/>
        </linearGradient>
        <linearGradient id="MCRT__b" x1="11.138" x2="14.325" y1="11.052" y2="8.073" gradientUnits="userSpaceOnUse">
            <stop stop-color="#21826F"/>
            <stop offset="1" stop-color="#062F6F"/>
        </linearGradient>
        <linearGradient id="MCRT__c" x1="12" x2="14.545" y1="8.162" y2="10.084" gradientUnits="userSpaceOnUse">
            <stop offset=".07" stop-color="#B1E2EF"/>
            <stop offset=".18" stop-color="#CFECF2"/>
            <stop offset=".82" stop-color="#CDEAEE"/>
            <stop offset="1" stop-color="#ADE0F3"/>
        </linearGradient>
        <linearGradient id="MCRT__d" x1="8.49" x2="11.746" y1="13.031" y2="16.174" gradientUnits="userSpaceOnUse">
            <stop stop-color="#108550"/>
            <stop offset="1" stop-color="#0E4E4D"/>
        </linearGradient>
    </defs>
</svg>
